X:128
T:Clark's Hornpipe
C:H. Clark
M:C|
L:1/8
K:D
%%MIDI channel 1
%%MIDI program 72
%%MIDI transpose 8
%%MIDI grace 1/8
F|{c}B>AB>c d>cd>e|f>^ef>g f>=ed>e|(3(fgf) (3(efe) (3(ded) (3(cdc)|B>cd>B (3(cdc) F>F|
{c}B>AB>c d>cd>e|f>^ef>g f>=ed>e|(3(fgf) (3(efe) (3(ded) (3(cdc)|B>gf>d B2 z::
a|(3(aba) (3(^gab) a>=gf>e|d>cd>e f>F^A>c|(3(fgf) (3(efg) f>ed>c|B>^AB>c d>ef>g|
(3(aba) (3(^gab) a>=gf>e|d>cd>e f>ed>e|(3(fgf) (3(efe) (3(ded) (3(cdc)|B>gf>d B2 z:|
